Adwaita++-Dark/actions/22/edit-delete.svg

<svg fill="none" height="22" viewBox="0 0 22 22" width="22" xmlns="http://www.w3.org/2000/svg">
  <path d="m9.26923 3c-1.15385 0-1.15385 1.14254-1.15385 1.14254h-3.46153s-1.15385.004-1.15385 1.147v1.14254l15-.00447v-1.13807c0-1.14254-1.1538-1.147-1.1538-1.147h-3.4616s0-1.14254-1.1538-1.14254zm-4.61538 4.57462v10.28288c.00005.5982.54971 1.1424 1.15384 1.1425h10.38461c.6041-.0001 1.1538-.5443 1.1539-1.1425v-10.28288z" fill="#e6ddff"/>
</svg>

<svg xmlns="http://www.w3.org/2000/svg" fill="none" width="22" height="22" viewBox="0 0 22 22">
 <path fill="#E6DDFF" d="M9.26923 3C8.11538 3 8.11538 4.14254 8.11538 4.14254H4.65385C4.65385 4.14254 3.5 4.14654 3.5 5.28954V6.43208L18.5 6.42761V5.28954C18.5 4.147 17.3462 4.14254 17.3462 4.14254H13.8846C13.8846 4.14254 13.8846 3 12.7308 3H9.26923ZM4.65385 7.57462V17.8575C4.6539 18.4557 5.20356 18.9999 5.80769 19H16.1923C16.7964 18.9999 17.3461 18.4557 17.3462 17.8575V7.57462H4.65385Z"/>
</svg>
